src/assets/icons/remotes/storj.svg

<svg width="24" height="24" viewBox="0 0 24 24" fill="currentColor" xmlns="http://www.w3.org/2000/svg">
    <path
        d="M12 4.34961C18.6274 4.34961 24 9.741 24 16.3916C24 17.5208 23.8451 18.6137 23.5555 19.6502H21.2667C21.6228 18.6301 21.8165 17.5336 21.8165 16.3916C21.8165 10.9512 17.4215 6.54078 12 6.54078C6.57853 6.54078 2.18353 10.9512 2.18353 16.3916C2.18353 16.7652 2.20425 17.1339 2.24461 17.4967L15.8494 17.4967C16.7435 17.4967 17.4682 16.7694 17.4682 15.8722C17.4682 15.007 16.7943 14.2998 15.945 14.2504L15.8279 14.2477L14.8834 14.2481L14.7471 13.3103C14.549 11.9477 13.3779 10.9231 11.9906 10.9231C10.7453 10.9231 9.66102 11.7506 9.31651 12.9311L9.08666 13.7188H8.01883C7.18713 13.7188 6.51292 14.3953 6.51292 15.2299L6.51482 15.3055H4.33017L4.32941 15.2299C4.32941 13.4125 5.63438 11.9009 7.35533 11.5873L7.50823 11.5629L7.52547 11.527C8.33428 9.86781 10.0188 8.7577 11.924 8.7324L11.9906 8.73196C14.1193 8.73196 15.9615 10.0829 16.6608 12.0102L16.7107 12.1549L16.7631 12.1674C18.4023 12.5731 19.6227 14.0457 19.6513 15.8091L19.6517 15.8722C19.6517 17.7969 18.2317 19.3887 16.3857 19.6502H0.444487C0.154881 18.6137 0 17.5208 0 16.3916C0 9.741 5.37257 4.34961 12 4.34961Z" />
</svg>

<svg xmlns="http://www.w3.org/2000/svg" width="24" height="24" fill="currentColor" viewBox="0 0 24 24"><path d="M12 4.35c6.627 0 12 5.391 12 12.042 0 1.129-.155 2.222-.445 3.258h-2.288c.356-1.02.55-2.116.55-3.258 0-5.44-4.395-9.851-9.817-9.851-5.421 0-9.816 4.41-9.816 9.85q0 .561.06 1.106H15.85c.895 0 1.62-.728 1.62-1.625 0-.865-.675-1.572-1.524-1.622l-.117-.002h-.945l-.136-.938a2.79 2.79 0 0 0-2.756-2.387c-1.246 0-2.33.828-2.674 2.008l-.23.788H8.019c-.832 0-1.506.676-1.506 1.51l.002.077H4.33v-.076a3.7 3.7 0 0 1 3.025-3.643l.153-.024.017-.036a4.97 4.97 0 0 1 4.399-2.795h.067c2.128 0 3.97 1.35 4.67 3.278l.05.145.052.012a3.815 3.815 0 0 1 2.888 3.642v.063a3.81 3.81 0 0 1-3.265 3.778H.444A12 12 0 0 1 0 16.392C0 9.74 5.373 4.35 12 4.35"/></svg>
